svgs/light/split.svg

<svg xmlns="http://www.w3.org/2000/svg" viewBox="0 0 512 512"><!--! Font Awesome Pro 6.3.0 by @fontawesome - https://fontawesome.com License - https://fontawesome.com/license (Commercial License) Copyright 2023 Fonticons, Inc. --><path d="M507.3 372.7c6.25 6.25 6.25 16.38 0 22.62l-80 80C424.2 478.4 420.1 480 416 480s-8.188-1.562-11.31-4.688c-6.25-6.25-6.25-16.38 0-22.62L457.4 400h-124.1c-12.62 0-25-5.125-33.94-14.06L185.4 272H24c-8.844 0-16-7.156-16-16s7.156-16 16-16h161.4l113.9-113.9C308.3 117.1 320.6 112 333.3 112h124.1l-52.69-52.69c-6.25-6.25-6.25-16.38 0-22.62s16.38-6.25 22.62 0l80 80c6.25 6.25 6.25 16.38 0 22.62l-80 80C424.2 222.4 420.1 224 416 224s-8.188-1.562-11.31-4.688c-6.25-6.25-6.25-16.38 0-22.62L457.4 144h-124.1c-4.219 0-8.344 1.719-11.31 4.688L214.6 256l107.3 107.3C324.9 366.3 329 368 333.3 368h124.1l-52.69-52.69c-6.25-6.25-6.25-16.38 0-22.62s16.38-6.25 22.62 0L507.3 372.7z"/></svg>

<svg xmlns="http://www.w3.org/2000/svg" viewBox="0 0 512 512"><!-- Font Awesome Pro 6.0.0-alpha2 by @fontawesome - https://fontawesome.com License - https://fontawesome.com/license (Commercial License) --><path d="M507.312 372.688C513.562 378.938 513.562 389.063 507.312 395.312L427.312 475.312C424.188 478.438 420.094 480 416 480S407.812 478.438 404.688 475.312C398.438 469.062 398.438 458.937 404.688 452.688L457.375 400H333.25C320.625 400 308.25 394.875 299.313 385.938L185.375 272H24C15.156 272 8 264.844 8 256S15.156 240 24 240H185.375L299.313 126.062C308.25 117.125 320.625 112 333.25 112H457.375L404.687 59.312C398.437 53.062 398.437 42.937 404.687 36.688S421.062 30.438 427.312 36.688L507.312 116.688C513.562 122.938 513.562 133.063 507.312 139.312L427.312 219.312C424.188 222.438 420.094 224 416 224S407.812 222.438 404.688 219.312C398.438 213.062 398.438 202.937 404.688 196.688L457.375 144H333.25C329.031 144 324.906 145.719 321.938 148.688L214.625 256L321.937 363.312C324.906 366.281 329.031 368 333.25 368H457.375L404.687 315.312C398.437 309.062 398.437 298.937 404.687 292.688S421.062 286.438 427.312 292.688L507.312 372.688Z"/></svg>
